X: 11
T:Ballydesmond Polka No. 2, The
M:2/4
L:1/8
R:Polka
K:Ador
AB[|:c2 B2|A2 G>A|Bd ed|g2 ed|!
ea ge|dB GA/2B/2|ce dB|1A2 AB:|2A2 A2|!
|:ea ag/2e/2|dg gd|ea ab|g2 ed|!
ea ge|dB GA/2B/2|ce dB|1A2 A2:|2A2 AB|]!
